resources/svg/lock-o.svg

<svg width="15" height="15" viewBox="0 0 15 15" fill="none" xmlns="http://www.w3.org/2000/svg">
<path d="M4.5 6.5V3.5C4.5 1.84315 5.84315 0.5 7.5 0.5C9.15685 0.5 10.5 1.84315 10.5 3.5V6.5M2.5 6.5H12.5C13.0523 6.5 13.5 6.94772 13.5 7.5V13.5C13.5 14.0523 13.0523 14.5 12.5 14.5H2.5C1.94772 14.5 1.5 14.0523 1.5 13.5V7.5C1.5 6.94772 1.94772 6.5 2.5 6.5Z" stroke="black"/>
</svg>

<svg viewBox="0 0 15 15" fill="none" xmlns="http://www.w3.org/2000/svg" fill="currentColor"><path d="M4.5 6.5v-3a3 3 0 016 0v3m-8 0h10a1 1 0 011 1v6a1 1 0 01-1 1h-10a1 1 0 01-1-1v-6a1 1 0 011-1z" stroke="currentColor"/></svg>
